public/images/logos/springer.svg

<?xml version="1.0" encoding="UTF-8" standalone="no"?>
<!-- Created with Vectornator (http://vectornator.io/) -->

<svg height="32" stroke-miterlimit="10" style="clip-rule:evenodd;fill-rule:nonzero;stroke-linecap:round;stroke-linejoin:round" version="1.1" viewBox="0 0 32 32" width="32" xml:space="preserve" id="svg5" sodipodi:docname="springer.svg" inkscape:version="1.4-beta2 (9aaf4f34, 2024-07-30)" xmlns:inkscape="http://www.inkscape.org/namespaces/inkscape" xmlns:sodipodi="http://sodipodi.sourceforge.net/DTD/sodipodi-0.dtd" xmlns="http://www.w3.org/2000/svg" xmlns:svg="http://www.w3.org/2000/svg"><sodipodi:namedview id="namedview5" pagecolor="#ffffff" bordercolor="#000000" borderopacity="0.25" inkscape:showpageshadow="2" inkscape:pageopacity="0.0" inkscape:pagecheckerboard="0" inkscape:deskcolor="#d1d1d1" inkscape:zoom="2.7800518" inkscape:cx="32.733203" inkscape:cy="29.316" inkscape:window-width="1440" inkscape:window-height="790" inkscape:window-x="0" inkscape:window-y="0" inkscape:window-maximized="1" inkscape:current-layer="svg5" />
<defs id="defs1" />

<g clip-path="url(#ClipPath)" id="g3" style="clip-rule:evenodd;fill-rule:nonzero;stroke-linecap:round;stroke-linejoin:round" transform="matrix(0.61881459,0,0,0.61881459,3.0131882,-8.2555599)">
<path d="m 14.7103,27.981 -3.2835,1.7516 -0.2187,-2.7004 3.4298,-0.3649 z M 6.31878,36.0822 C 6.39217,37.029 6.24559,38.4907 5.73471,39.2185 L 4.20245,38.6346 C 4.71313,37.9068 5.00527,36.885 5.00527,36.0092 Z M 36.7494,52.2096 c 4.231,-17.4411 -0.7299,-31.308 -14.2298,-32.9137 0.0729,0.7319 0.0729,1.3137 0.0729,1.8976 0,0.8758 -0.0729,1.6056 -0.0729,1.6056 L 20.403,22.4342 c 0.073,-0.7298 0.219,-5.6907 -1.5332,-6.7855 0,0 0,2.6254 -0.5829,5.2529 l -1.971,-0.3629 c 0,-1.8246 -0.8028,-2.5545 -1.8967,-3.0654 l 0.5109,3.5763 -1.2414,1.8225 0.5841,1.6786 -3.8675,1.3138 -1.095,3.1383 -6.78668,9.3399 2.55484,3.0653 2.84596,-2.4065 0.65645,0.4359 v 3.5762 h 1.53223 c 0.6573,-2.5544 2.7728,-5.5467 4.7438,-7.0044 l -1.095,-1.3137 1.6057,-1.3887 1.5324,1.8996 5.4736,-0.075 c 0.8028,-1.7496 1.3137,-3.8661 1.3137,-6.3476 h 2.1165 c 0,8.3202 -4.16,11.6024 -9.3413,16.7113 -1.8978,1.8969 -3.5766,3.9411 -3.7953,6.7145 z m 5.2528,2.0415 H 7.5591 v -2.1145 h 2.9194 c 0.5108,-6.8605 7.0778,-9.4149 10.7274,-14.9597 h -4.2327 c -2.0431,0.7299 -5.1089,5.2529 -5.1089,7.8803 H 6.53773 L 6.61092,42.8677 4.8587,44.3273 0.188341,38.9265 c 0,0 -0.2187491,-0.2919 -0.2187491,-0.5109 0,-0.2169 0.0731866,-0.3649 0.0731866,-0.3649 L 7.41374,28.054 8.72623,24.1128 10.6972,23.383 12.7403,20.5387 12.0107,15.5758 c 1.97,-0.7299 3.8677,-0.073 4.8159,0.8737 0.0734,-1.4576 -0.0721,-3.0633 -0.0721,-3.0633 3.5026,-0.3649 4.7433,1.5327 5.3272,3.6492 0.9467,0.073 1.8246,0.217 2.6274,0.365 0.1439,-0.4379 0.5838,-0.8029 1.0947,-0.8029 0.6549,0 1.0928,0.5109 1.0928,1.0948 v 0.2919 c 1.5347,0.5109 2.9923,1.2408 4.306,2.0436 0.219,-0.292 0.5109,-0.44 0.8758,-0.44 0.6569,0 1.0948,0.5109 1.0948,1.0948 0,0.2919 -0.073,0.5109 -0.219,0.6589 1.2407,1.0218 2.2625,2.2605 3.2113,3.5742 0.146,-0.073 0.3649,-0.146 0.5109,-0.146 0.6569,0 1.1677,0.5109 1.1677,1.0948 0,0.4379 -0.2189,0.8028 -0.5838,0.9487 0.7298,1.3138 1.3117,2.7734 1.7516,4.3061 0.073,-0.073 0.2189,-0.073 0.2919,-0.073 0.6569,0 1.0927,0.5109 1.0927,1.0948 0,0.5838 -0.3628,1.0217 -0.8007,1.0947 0.2899,1.5327 0.5108,3.0653 0.6568,4.671 0.6548,0 1.1657,0.5088 1.1657,1.0947 0,0.6549 -0.5109,1.0928 -1.0927,1.1658 0,1.5326 -0.073,3.2112 -0.219,4.8169 0.5819,0.073 1.0218,0.5839 1.0218,1.1677 0,0.5839 -0.5109,1.0946 -1.1677,1.0946 h -0.075 c -0.2899,1.6058 -0.5819,3.2094 -0.9468,4.8901 h 3.0633 v 2.1145" fill="#000000" fill-rule="nonzero" opacity="1" stroke="none" id="path3" /><path d="M 7.5593,65.0527 H 42.0036 V 60.8199 H 7.5593 Z" fill="#000000" fill-rule="nonzero" opacity="1" stroke="none" id="path4" inkscape:label="path4" style="clip-rule:evenodd;fill-rule:nonzero;stroke-linecap:round;stroke-linejoin:round" />
</g>
</svg>

<?xml version="1.0" encoding="UTF-8" standalone="no"?>
<!DOCTYPE svg PUBLIC "-//W3C//DTD SVG 1.1//EN" "http://www.w3.org/Graphics/SVG/1.1/DTD/svg11.dtd">
<!-- Created with Vectornator (http://vectornator.io/) -->
<svg height="100%" stroke-miterlimit="10" style="fill-rule:nonzero;clip-rule:evenodd;stroke-linecap:round;stroke-linejoin:round;" version="1.1" viewBox="0 0 200 80" width="100%" xml:space="preserve" xmlns="http://www.w3.org/2000/svg" xmlns:xlink="http://www.w3.org/1999/xlink">
<defs/>
<path d="M0 0L200 0L200 80L0 80L0 0Z" fill="#000000" fill-opacity="0" fill-rule="nonzero" opacity="1" stroke="none"/>
<g id="Sem-Título">
<g opacity="1">
<g opacity="1">
<clipPath id="ClipPath">
<path d="M3.55271e-14 13.3416L199.998 13.3416L199.998 66.6584L4.26326e-14 66.6584C4.26326e-14 66.6584 4.26326e-14 13.3416 3.55271e-14 13.3416Z"/>
</clipPath>
<g clip-path="url(#ClipPath)">
<path d="M14.7103 27.981L11.4268 29.7326L11.2081 27.0322L14.6379 26.6673L14.7103 27.981ZM6.31878 36.0822C6.39217 37.029 6.24559 38.4907 5.73471 39.2185L4.20245 38.6346C4.71313 37.9068 5.00527 36.885 5.00527 36.0092L6.31878 36.0822ZM36.7494 52.2096C40.9804 34.7685 36.0195 20.9016 22.5196 19.2959C22.5925 20.0278 22.5925 20.6096 22.5925 21.1935C22.5925 22.0693 22.5196 22.7991 22.5196 22.7991L20.403 22.4342C20.476 21.7044 20.622 16.7435 18.8698 15.6487C18.8698 15.6487 18.8698 18.2741 18.2869 20.9016L16.3159 20.5387C16.3159 18.7141 15.5131 17.9842 14.4192 17.4733L14.9301 21.0496L13.6887 22.8721L14.2728 24.5507L10.4053 25.8645L9.3103 29.0028L2.52362 38.3427L5.07846 41.408L7.92442 39.0015L8.58087 39.4374L8.58087 43.0136L10.1131 43.0136C10.7704 40.4592 12.8859 37.4669 14.8569 36.0092L13.7619 34.6955L15.3676 33.3068L16.9 35.2064L22.3736 35.1314C23.1764 33.3818 23.6873 31.2653 23.6873 28.7838L25.8038 28.7838C25.8038 37.104 21.6438 40.3862 16.4625 45.4951C14.5647 47.392 12.8859 49.4362 12.6672 52.2096L36.7494 52.2096ZM42.0022 54.2511L7.5591 54.2511L7.5591 52.1366L10.4785 52.1366C10.9893 45.2761 17.5563 42.7217 21.2059 37.1769L16.9732 37.1769C14.9301 37.9068 11.8643 42.4298 11.8643 45.0572L6.53773 45.0572L6.61092 42.8677L4.8587 44.3273L0.188341 38.9265C0.188341 38.9265-0.0304081 38.6346-0.0304081 38.4156C-0.0304081 38.1987 0.0427785 38.0507 0.0427785 38.0507L7.41374 28.054L8.72623 24.1128L10.6972 23.383L12.7403 20.5387L12.0107 15.5758C13.9807 14.8459 15.8784 15.5028 16.8266 16.4495C16.9 14.9919 16.7545 13.3862 16.7545 13.3862C20.2571 13.0213 21.4978 14.9189 22.0817 17.0354C23.0284 17.1084 23.9063 17.2524 24.7091 17.4004C24.853 16.9625 25.2929 16.5975 25.8038 16.5975C26.4587 16.5975 26.8966 17.1084 26.8966 17.6923L26.8966 17.9842C28.4313 18.4951 29.8889 19.225 31.2026 20.0278C31.4216 19.7358 31.7135 19.5878 32.0784 19.5878C32.7353 19.5878 33.1732 20.0987 33.1732 20.6826C33.1732 20.9745 33.1002 21.1935 32.9542 21.3415C34.1949 22.3633 35.2167 23.602 36.1655 24.9157C36.3115 24.8427 36.5304 24.7697 36.6764 24.7697C37.3333 24.7697 37.8441 25.2806 37.8441 25.8645C37.8441 26.3024 37.6252 26.6673 37.2603 26.8132C37.9901 28.127 38.572 29.5866 39.0119 31.1193C39.0849 31.0463 39.2308 31.0463 39.3038 31.0463C39.9607 31.0463 40.3965 31.5572 40.3965 32.1411C40.3965 32.7249 40.0337 33.1628 39.5958 33.2358C39.8857 34.7685 40.1066 36.3011 40.2526 37.9068C40.9074 37.9068 41.4183 38.4156 41.4183 39.0015C41.4183 39.6564 40.9074 40.0943 40.3256 40.1673C40.3256 41.6999 40.2526 43.3785 40.1066 44.9842C40.6885 45.0572 41.1284 45.5681 41.1284 46.1519C41.1284 46.7358 40.6175 47.2465 39.9607 47.2465L39.8857 47.2465C39.5958 48.8523 39.3038 50.4559 38.9389 52.1366L42.0022 52.1366L42.0022 54.2511" fill="#000000" fill-rule="nonzero" opacity="1" stroke="none"/>
</g>
</g>
<path d="M7.5593 65.0527L42.0036 65.0527L42.0036 60.8199L7.5593 60.8199L7.5593 65.0527Z" fill="#000000" fill-rule="nonzero" opacity="1" stroke="none"/>
<path d="M197.373 40.3882C196.862 39.8773 196.205 39.6584 195.621 39.6584C194.672 39.6584 193.431 40.7532 192.631 43.0157L192.631 49.8023C192.631 52.283 192.921 52.5027 196.059 52.7215L196.059 54.1806L186.062 54.1806L186.062 52.7215C188.617 52.5027 188.836 52.283 188.836 49.8023L188.836 41.556C188.836 39.0745 188.69 39.0745 186.354 38.6366L186.354 37.3959C188.69 36.958 190.733 36.5201 192.631 35.7903L192.631 40.1693L192.702 40.1693C193.942 37.7608 195.767 35.8653 197.519 35.8653C198.905 35.8653 200 36.958 200 38.1257C200 39.8044 198.175 41.264 197.373 40.3882ZM176.355 37.6878C174.679 37.6878 172.925 39.5124 172.489 42.6507L178.764 42.5048C179.567 42.5048 179.713 42.2858 179.713 41.556C179.713 39.5854 178.326 37.6878 176.355 37.6878ZM182.559 44.0374C181.902 44.1104 176.866 44.4753 172.27 44.6213C172.414 49.437 175.261 51.4802 178.109 51.4802C179.713 51.4802 180.88 51.0427 182.34 49.5836L183.289 50.8971C180.88 53.8886 178.034 54.6183 176.72 54.6183C171.54 54.6183 168.548 50.6783 168.548 46.008C168.548 40.3152 172.854 35.8653 177.158 35.8653C180.734 35.8653 183.581 38.9286 183.581 42.3588C183.581 43.4536 183.362 43.8915 182.559 44.0374ZM156.8 37.6148C155.267 37.6148 153.515 39.2205 153.515 42.2858C153.515 45.3511 155.121 47.5404 157.311 47.5404C158.914 47.5404 160.449 46.154 160.449 42.7967C160.449 39.9503 159.06 37.6148 156.8 37.6148ZM161.469 56.3703C160.449 56.0049 159.06 55.9318 156.8 55.9318C153.661 55.9318 152.275 58.267 152.275 60.0191C152.275 62.5003 154.464 64.3979 157.748 64.3979C161.396 64.3979 163.439 61.9894 163.439 59.5805C163.439 58.0483 162.563 56.8078 161.469 56.3703ZM167.234 36.812C166.942 37.4689 166.14 38.7096 165.483 39.0745L163.366 38.8556C163.95 39.6584 164.388 41.264 164.388 42.5048C164.388 46.9564 160.374 49.3648 156.727 49.3648C156.508 49.3648 155.924 49.2914 155.413 49.2914C154.537 49.5836 153.807 50.6052 153.807 51.2614C153.807 51.9187 154.464 52.7215 156.216 52.7215L160.593 52.7215C163.147 52.7215 166.577 53.9618 166.577 58.0483C166.577 62.7193 161.688 66.6584 155.997 66.6584C151.034 66.6584 148.407 63.5951 148.407 61.1136C148.407 59.5084 149.209 58.267 152.64 55.6398C151.399 55.2021 149.209 53.9618 149.355 51.6267C151.034 50.8971 152.567 49.5836 153.223 48.7808C151.253 48.1235 149.428 45.789 149.428 43.1616C149.428 38.4177 153.661 35.8653 157.165 35.8653C158.695 35.8653 160.157 36.2282 161.396 36.887C163.293 36.812 165.191 36.5931 166.942 36.3762L167.234 36.812ZM146.438 54.1806L137.826 54.1806L137.826 52.7215C139.869 52.5027 140.161 52.283 140.161 49.9479L140.161 42.7967C140.161 40.1693 138.994 38.5636 136.804 38.5636C135.417 38.5636 133.812 39.5854 132.717 40.6072L132.717 49.9479C132.717 52.283 132.936 52.5027 134.98 52.7215L134.98 54.1806L126.076 54.1806L126.076 52.7215C128.557 52.5027 128.922 52.283 128.922 49.9479L128.922 41.556C128.922 39.0745 128.778 38.9286 126.586 38.6366L126.586 37.3959C128.778 36.958 130.819 36.5201 132.717 35.7903L132.717 38.7096C133.666 37.9068 136.439 35.8653 138.556 35.8653C141.838 35.8653 143.882 38.1257 143.882 41.483L143.882 49.9479C143.882 52.283 144.246 52.5027 146.438 52.7215L146.438 54.1806ZM119.29 31.9241C117.903 31.9241 116.809 30.8294 116.809 29.4427C116.809 27.983 117.903 26.8883 119.29 26.8883C120.75 26.8883 121.844 27.983 121.844 29.4427C121.844 30.8294 120.75 31.9241 119.29 31.9241ZM124.107 54.1806L114.765 54.1806L114.765 52.7215C117.246 52.5027 117.611 52.283 117.611 49.6568L117.611 41.7749C117.611 38.9286 117.392 38.9286 114.984 38.6366L114.984 37.3959C117.246 36.958 119.509 36.4471 121.334 35.7903L121.334 49.6568C121.334 52.283 121.553 52.5027 124.107 52.7215L124.107 54.1806ZM110.167 40.3882C109.729 39.8044 109.145 39.6584 108.417 39.6584C107.469 39.6584 106.301 40.7532 105.498 43.0157L105.498 49.8023C105.498 52.283 105.79 52.5027 108.926 52.7215L108.926 54.1806L99.0026 54.1806L99.0026 52.7215C101.484 52.5027 101.776 52.283 101.776 49.8023L101.776 41.556C101.776 39.0745 101.557 39.0745 99.2945 38.6366L99.2945 37.3959C101.484 36.958 103.601 36.5201 105.498 35.7903L105.498 40.1693L105.571 40.1693C106.885 37.7608 108.709 35.8653 110.386 35.8653C111.846 35.8653 112.867 36.958 112.867 38.1257C112.867 39.8044 111.118 41.264 110.167 40.3882ZM87.4002 38.5636C86.2324 38.5636 84.6998 39.3665 83.751 39.9503L83.751 50.7505C84.5538 51.6267 85.8675 52.283 87.4731 52.283C89.5897 52.283 92.3631 50.6783 92.3631 45.2052C92.3631 40.6072 90.1735 38.5636 87.4002 38.5636ZM86.4514 54.5459C85.2836 54.4727 84.3348 54.2539 83.751 54.0352L83.751 60.8947C83.751 63.3761 84.0429 63.5951 87.4002 63.887L87.4002 65.2717L77.1115 65.2717L77.1115 63.887C79.7389 63.5951 79.9558 63.3761 79.9558 60.8947L79.9558 41.41C79.9558 38.8556 79.8828 38.7826 77.4034 38.5636L77.4034 37.3229C79.5909 36.887 81.6344 36.2282 83.751 35.4983L83.751 38.2717L87.6921 36.2282C88.203 35.9362 88.7139 35.8653 89.2248 35.8653C93.7498 35.8653 96.3022 39.8044 96.3022 43.5995C96.3022 49.7289 91.9252 53.8886 86.4514 54.5459ZM65.653 54.838C62.8816 54.838 60.6921 54.1806 58.5756 53.2324C58.1377 51.3346 57.9897 48.7808 57.8458 46.154L59.5244 45.862C60.4732 49.437 61.7869 52.9402 66.1639 52.9402C69.2292 52.9402 71.0538 51.0427 71.0538 48.1967C71.0538 40.6802 58.5756 42.3588 58.5756 33.6737C58.5756 29.7346 61.7869 26.1584 67.4776 26.1584C69.3752 26.1584 71.4187 26.6693 73.4623 27.3991C73.6082 28.9318 73.7542 30.6834 73.8272 33.7487L72.2945 33.8217C71.5647 31.2673 70.397 28.129 66.6748 28.129C63.9034 28.129 62.5147 30.0266 62.5147 32.287C62.5147 39.2205 75.2139 37.7608 75.2139 46.8098C75.2139 51.1158 71.3457 54.838 65.653 54.838" fill="#000000" fill-rule="nonzero" opacity="1" stroke="none"/>
</g>
</g>
</svg>
